outputs/icons/device/devices_round.svg

<svg xmlns="http://www.w3.org/2000/svg" width="1200" height="1200" fill="none"><g clip-path="url(#a)"><path fill="#000" d="M200 350c0-27.5 22.5-50 50-50h800c27.5 0 50-22.5 50-50s-22.5-50-50-50H200c-55 0-100 45-100 100v550H75c-41.5 0-75 33.5-75 75s33.5 75 75 75h625V850H200zm950 50H850c-27.5 0-50 22.5-50 50v500c0 27.5 22.5 50 50 50h300c27.5 0 50-22.5 50-50V450c0-27.5-22.5-50-50-50m-50 450H900V500h200z"/></g><defs><clipPath id="a"><path fill="#fff" d="M0 0h1200v1200H0z"/></clipPath></defs></svg>

<svg width="1200" height="1200" viewBox="0 0 1200 1200" fill="none" xmlns="http://www.w3.org/2000/svg"><g clip-path="url(#clip0_231_4440)"><path d="M200 350C200 322.5 222.5 300 250 300H1050C1077.5 300 1100 277.5 1100 250C1100 222.5 1077.5 200 1050 200H200C145 200 100 245 100 300V850H75C33.5 850 0 883.5 0 925C0 966.5 33.5 1000 75 1000H700V850H200V350ZM1150 400H850C822.5 400 800 422.5 800 450V950C800 977.5 822.5 1000 850 1000H1150C1177.5 1000 1200 977.5 1200 950V450C1200 422.5 1177.5 400 1150 400ZM1100 850H900V500H1100V850Z" fill="black"/></g><defs><clipPath id="clip0_231_4440"><path width="24" fill="white" d="M0 0H1200V1200H0V0z"/></clipPath></defs></svg>
